X:1
T:Israel (Martin), 88.88.88
T:Israel (Martin), 88.88.88
T:George Clement Martin (1844-1916)
T:Public Domain Courtesy of the Cyber Hymnal™
C:George Clement Martin (1844-1916)
Z:Public Domain
Z:Courtesy of the Cyber Hymnal™
%%score ( 1 2 ) ( 3 4 )
L:1/8
M:3/4
K:E
V:1 treble 
V:2 treble 
V:3 bass 
V:4 bass 
V:1
 [EB]2 [DB]2 [EB]2 | B4 [FA]2 | [EG]4 [DF]2 | E6 | [Cc]2 [Dc]2 [^Ec]2 | c4 [EB]2 | %6
 [GB]2 [FA]2 [Ec]2 | [DF]6 | [DB]2 [E^A]2 [CG]2 | F4 [DB]2 | (B2 ^A2) [CG]2 | F6 | %12
 [DB]2 [EB]2 [FB]2 | [EG]4 [Ee]2 | [Fd]4 [Ec]2 | [DB]6 | [GB]2 [FA]2 [EG]2 | [DF]4 E2 | %18
 [DF]4 [^EG]2 | [FA]6 | c2 [Fd]2 [Ee]2 | [EF]4 [Ec]2 | B6 | [B,D]6 |] %24
V:2
 x6 | (G2 ^E2) x2 | x6 | (E4 D2) | x6 | (F2 D2) x2 | x6 | x6 | x6 | F4 x2 | E4 x2 | F6 | x6 | x6 | %14
 x6 | x6 | x6 | x4 E2 | x6 | x6 | (AG) x4 | x6 | (E2 D2 C2) | x6 |] %24
V:3
 [E,G,]2 [F,A,]2 [G,B,]2 | [A,C]4 [F,C]2 | B,4 [B,,A,]2 | G,6 | [A,,E,]2 [A,,F,]2 [G,,G,]2 | %5
 [F,,A,]4 [G,,B,]2 | [A,,C]4 [F,,C]2 | [B,,B,]6 | [B,,F,]2 [C,F,]2 [E,^A,]2 | [D,B,]4 [B,,F,]2 | %10
 (F,3 G,) [E,^A,]2 | [D,B,]6 | [G,B,]2 [E,G,]2 [D,F,]2 | [E,B,]4 [C,C]2 | (B,2 G,2) [F,^A,]2 | %15
 [B,,B,]6 | [E,G,]2 [F,A,]2 [G,B,]2 | [A,B,]4 [G,B,]2 | [A,B,]4 [G,B,]2 | [F,C]6 | %20
 (CB,) [B,,A,]2 [C,G,]2 | [A,,C]4 [^A,,F,]2 | [B,,F,]6 | (B,4 A,2) |] %24
V:4
 x6 | x6 | B,4 x2 | (C,4 B,,2) | x6 | x6 | x6 | x6 | x6 | x6 | C,4 x2 | x6 | x6 | x6 | F,4 x2 | %15
 x6 | x6 | x6 | x6 | x6 | F,2 x4 | x6 | x6 | B,,6 |] %24

